X: 20
T: Tekeli
M:6/8
L:1/8
B:Goulding & Co. - Twenty Four Country Dances for the Year 1808 (London)
N:"With proper Tune & Directions to each Dance (as they may be
N:performed at Court, Bath, and all Public Assemblys."
Z:Transcribed and edited by Flynn Titford-Mock
Z:abcs's:AK/Fiddler's Companion
K:C
G|c2c cBc|A2c G2c|GAB cde|f2d B2G|c2c cBc|A2c G2c|GAB cde|fdB c3:||
c2d [c3e3]|efe d2c|{e}d2c {e}d2c|{e}d2c {e}d2e|c2d [c3e3]|efe d2c|d2c d2e|d3 c2||

%%sep 1 1 500
